icon-svg/tesla-icon.svg

<svg xmlns="http://www.w3.org/2000/svg" fill="#44739e" viewBox="0 0 24 24"><path d="M12 3.038a24.66 24.66 0 0 0-9 1.754 8.6 8.6 0 0 0 .5 1.041 20.74 20.74 0 0 1 8.5-1.7 20.75 20.75 0 0 1 8.5 1.7 6.9 6.9 0 0 0 .5-1.041 24.66 24.66 0 0 0-9-1.754m0 4.005-1.857-2.261A17.79 17.79 0 0 0 3.79 6.317a5.653 5.653 0 0 0 2.422 1.819c.11-1.074.866-1.336 3.251-1.336L12 20.962 14.519 6.8c2.4 0 3.158.263 3.267 1.338a5.666 5.666 0 0 0 2.422-1.82 17.81 17.81 0 0 0-6.353-1.535z"/></svg>

<?xml version="1.0" encoding="UTF-8"?>
<svg width="33px" height="32px" viewBox="0 0 24 24" fill="#44739e" version="1.1" xmlns="http://www.w3.org/2000/svg" xmlns:xlink="http://www.w3.org/1999/xlink">
            <path d="M 12,3.038 A 24.659,24.659 0 0 0 3,4.792 8.631,8.631 0 0 0 3.5,5.833 20.743,20.743 0 0 1 12,4.133 v 0 a 20.746,20.746 0 0 1 8.5,1.7 A 6.892,6.892 0 0 0 21,4.792 24.659,24.659 0 0 0 12,3.038 Z M 12,7.043 10.143,4.782 A 17.785,17.785 0 0 0 3.79,6.317 5.653,5.653 0 0 0 6.212,8.136 C 6.322,7.062 7.078,6.8 9.463,6.8 L 12,20.962 14.519,6.8 c 2.4,0 3.158,0.263 3.267,1.338 a 5.666,5.666 0 0 0 2.422,-1.82 17.81,17.81 0 0 0 -6.353,-1.535 z"/>

</svg>
